!!!COM: Edouard Lalo
!!!CNT: Francais
!!!TXO: Francais
!!!OTL: Dieu Qui Sourit et Qui Donne
!!!OPR: 6 Me/lodies avec accompagnement de piano
!!!OPS: Op. 17
!!!ONM: No. 4
!!!LYR: Victor Hugo
!!!ENC: Jacob Pegg
!!!ODT: 1856/
!!!YOR: Romantic French Song 1830-1870, David Tunley, ed., New !!!YOR: York: Garland Publishing, Inc., 1995, vol. 3
!!NB: Vocal melody and text only encoded.
!!NB: First instance of melodic material only encoded.
**kern	**silbe
*clef G2	*
*k[b-]	*
*M3/8	*
=17	=17
{[4.dd	{Dieu
=18	=18
8dd]	|
8b-	qui
8g	sou-
=19	=19
8g	-rit
8g	et
8a	qui
=20	=20
4b-	don-
8b-}	-ne}
=21	=21
{4a	{Et
8cc	qui
=22	=22
4ff	vient
8cc	vers
=23	=23
(8b-	qui
8a)	|
8g	l'at-
=24	=24
4.a}	-tend,}
=25	=25
4.r	.
=26	=26
4r	.
{8g	{Pour-
=27	=27
8f	-vu
8a	que
8dd	vous
=28	=28
4cc	soy-
8b-	-ez
=29	=29
4a	bon-
8a}	-ne,}
=30	=30
{8a	{Se-
8cc	-ra
8b-	con-
=31	=31
[4.b-	-tent,
=32	=32
4.b-]}	|}
=33	=33
{8b-	{Se-
8a	-ra
8g	con-
=34	=34
4.f}	-tent.}
*-	*-
